X: 13058
T: Finn Patrick's
R: jig
M: 6/8
K: Fmajor
|:~A2G Acc|AFF GDD|~A2G Acc|AGF F2G|
~A2G Acc|AFF GDD|~A2G AFD|1 CDF F2G:|2 CDF F2E||
|:F2C CDF|G2(A A)AG|F2C CDF|A2(G G)GA|
F2C CDF|G2(A A)AG|~A3 cAG|1 GFF ~A2G:|2 GFF F2G||

